!!!COM: Vivaldi, Antonio
!!!OTL: Concerto a violino solo, No. 3
!!!XEN: Violin Concerto No. 3
!!!OTP: L'Autunno
!!!OTA: The Four Seasons, Autumn
!!!OPR: Il Cimento dell'armonia e dell'inventione
!!!XEN: The Contest of Harmony and Invention
!!!OPS: Opus 8
!!!ONM: No. 3
!!!OMV: Movement 3.
!!!YEC: Copyright 1996, Center for Computer Assisted Research in the Humanities
!!!YEM: Rights to all derivative electronic formats reserved.
!!!YEM: Refer to licensing agreement for important restrictions.
!!!OMD: Allegro
**kern	**kern	**kern	**kern	**kern	**Bnum
*Icello	*Iviola	*Ivioln	*Ivioln	*Ivioln	*Icemba
*Icemba	*	*	*	*	*
*ICstr	*ICstr	*ICstr	*ICstr	*ICstr	*ICklav
*ICklav	*	*	*	*	*
!cello	!viola	!violino 2 	!violino 1	!violino principale	!continuo
!basso continuo	!	!	!	!	!
*clefF4	*clefC3	*clefG2	*clefG2	*clefG2	*
*k[b-]	*k[b-]	*k[b-]	*k[b-]	*k[b-]	*k[b-]
*F:	*F:	*F:	*F:	*F:	*F:
*M3/8	*M3/8	*M3/8	*M3/8	*M3/8	*M3/8
*>Selfridge-Field[etc1,S40,etc2,S69,etc3,S83,etc4,S93,etc5,S102,etc6,S126,etc7,S142,etc8]	*>Selfridge-Field[etc1,S40,etc2,S69,etc3,S83,etc4,S93,etc5,S102,etc6,S126,etc7,S142,etc8]	*>Selfridge-Field[etc1,S40,etc2,S69,etc3,S83,etc4,S93,etc5,S102,etc6,S126,etc7,S142,etc8]	*>Selfridge-Field[etc1,S40,etc2,S69,etc3,S83,etc4,S93,etc5,S102,etc6,S126,etc7,S142,etc8]	*>Selfridge-Field[etc1,S40,etc2,S69,etc3,S83,etc4,S93,etc5,S102,etc6,S126,etc7,S142,etc8]	*>Selfridge-Field[etc1,S40,etc2,S69,etc3,S83,etc4,S93,etc5,S102,etc6,S126,etc7,S142,etc8]
*>Manchester[etc1,M40,etc2,S69,etc3,M83,etc4,M93,etc5,S102,etc6,S126,etc7,S142,etc8]	*>Manchester[etc1,M40,etc2,S69,etc3,M83,etc4,M93,etc5,S102,etc6,S126,etc7,S142,etc8]	*>Manchester[etc1,M40,etc2,S69,etc3,M83,etc4,M93,etc5,S102,etc6,S126,etc7,S142,etc8]	*>Manchester[etc1,M40,etc2,S69,etc3,M83,etc4,M93,etc5,S102,etc6,S126,etc7,S142,etc8]	*>Manchester[etc1,M40,etc2,S69,etc3,M83,etc4,M93,etc5,S102,etc6,S126,etc7,S142,etc8]	*>Manchester[etc1,M40,etc2,S69,etc3,M83,etc4,M93,etc5,S102,etc6,S126,etc7,S142,etc8]
*>Amsterdam[etc1,S40,etc2,A69,etc3,S83,etc4,S93,etc5,A102,etc6,A126,etc7,A142,etc8]	*>Amsterdam[etc1,S40,etc2,A69,etc3,S83,etc4,S93,etc5,A102,etc6,A126,etc7,A142,etc8]	*>Amsterdam[etc1,S40,etc2,A69,etc3,S83,etc4,S93,etc5,A102,etc6,A126,etc7,A142,etc8]	*>Amsterdam[etc1,S40,etc2,A69,etc3,S83,etc4,S93,etc5,A102,etc6,A126,etc7,A142,etc8]	*>Amsterdam[etc1,S40,etc2,A69,etc3,S83,etc4,S93,etc5,A102,etc6,A126,etc7,A142,etc8]	*>Amsterdam[etc1,S40,etc2,A69,etc3,S83,etc4,S93,etc5,A102,etc6,A126,etc7,A142,etc8]
*>etc1	*>etc1	*>etc1	*>etc1	*>etc1	*>etc1
=1-	=1-	=1-	=1-	=1-	=1-
8FF/L	8A/L	16.f/LL	16.f/LL	16.f/LL	.
.	.	32cc/Jk	32cc/Jk	32cc/Jk	.
8F/	8c/	8f/	8f/	8f/	.
8F/J	8A/J	8f/J	8f/J	8f/J	.
=2	=2	=2	=2	=2	=2
8FF/L	8A/L	16.f/LL	16.f/LL	16.f/LL	.
.	.	32cc/Jk	32cc/Jk	32cc/Jk	.
8F/	8c/	8f/	8f/	8f/	.
8F/J	8A/J	8f/J	8f/J	8f/J	.
=3	=3	=3	=3	=3	=3
16.FF/LL	8A/L	16.f/LL	16.f/LL	16.f/LL	.
32F/Jk	.	32a/Jk	32cc/Jk	32cc/Jk	.
8BB-/	8d/	8g/	8b-/	8b-/	.
8BBn/J	8d/J	8f/J	8a/J	8a/J	7 5
=4	=4	=4	=4	=4	=4
16C/LL	16e/LL	8c/L	8g/L	8g/L	.
16BB-/	16d/	.	.	.	.
16AA/	16c/	8c/	8g/	8g/	.
16GG/	16B-/	.	.	.	.
16FF/	16A/	8c/J	8g/J	8g/J	.
16EE/JJ	16G/JJ	.	.	.	.
=5	=5	=5	=5	=5	=5
8FF/L	8A/L	16.f/LL	16.f/LL	16.f/LL	.
.	.	32cc/Jk	32cc/Jk	32cc/Jk	.
8F/	8c/	8f/	8f/	8f/	.
8F/J	8A/J	8f/J	8f/J	8f/J	.
=6	=6	=6	=6	=6	=6
8FF/L	8A/L	16.f/LL	16.f/LL	16.f/LL	.
.	.	32cc/Jk	32cc/Jk	32cc/Jk	.
8F/	8c/	8f/	8f/	8f/	.
8F/J	8A/J	8f/J	8f/J	8f/J	.
=7	=7	=7	=7	=7	=7
16.FF/LL	8A/L	16.f/LL	16.f/LL	16.f/LL	.
32F/Jk	.	32a/Jk	32cc/Jk	32cc/Jk	.
8BB-/	8d/	8g/	8b-/	8b-/	.
8BBn/J	8d/J	8f/J	8a/J	8a/J	7 5
=8	=8	=8	=8	=8	=8
16C/LL	16e/LL	4c/	4g/	4g/	.
16BB-/	16d/	.	.	.	.
16AA/	16c/	.	.	.	.
16GG/	16B-/	.	.	.	.
16FF/	16A/	8r	8r	8r	.
16EE/JJ	16G/JJ	.	.	.	.
=9	=9	=9	=9	=9	=9
8FF/L	8A\L	16.f/LL	16.f/LL	16.f/LL	.
.	.	32ff/Jk	32ff/Jk	32ff/Jk	.
8F/	8f\	8f/	8f/	8f/	.
8F/J	8f\J	8f/J	8f/J	8f/J	.
=10	=10	=10	=10	=10	=10
8FF/L	8c\L	16.f/LL	16.f/LL	16.f/LL	.
.	.	32ee-/Jk	32ee-/Jk	32ee-/Jk	.
8F/	8f\	8f/	8f/	8f/	.
8F/J	8f\J	8f/J	8f/J	8f/J	.
=11	=11	=11	=11	=11	=11
8FF/L	8B-\L	16.f/LL	16.f/LL	16.f/LL	.
.	.	32dd/Jk	32dd/Jk	32dd/Jk	.
8F/	8f\	8f/	8f/	8f/	.
8F/J	8f\J	8f/J	8f/J	8f/J	.
=12	=12	=12	=12	=12	=12
8FF/L	8A\L	16.f/LL	16.f/LL	16.f/LL	.
.	.	32cc/Jk	32cc/Jk	32cc/Jk	.
8F/	8f\	8f/	8f/	8f/	.
8F/J	8f\J	8f/J	8f/J	8f/J	.
=13	=13	=13	=13	=13	=13
4FF/	4A/	4f/	4f/	4f/	.
8r	8r	8r	8r	8r	.
=14	=14	=14	=14	=14	=14
8F\L	8cc\L	8ff\L	8aa\L	8aa\L	.
16F\L	16cc\L	16ff\L	16aa\L	16aa\L	.
16F\	16cc\	16ff\	16aa\	16aa\	.
16F\	16cc\	16ff\	16aa\	16aa\	.
16C\JJ	16e\JJ	16gg\JJ	16bb-\JJ	16bb-\JJ	7
=15	=15	=15	=15	=15	=15
8F/L	8c\L	8aa\L	8ccc\L	8ccc\L	.
16FF/L	8c\	8ff\	8aa\	8aa\	.
16FF/	.	.	.	.	.
16FF/	8c\J	8ff\J	8aa\J	8aa\J	.
16FF/JJ	.	.	.	.	.
=16	=16	=16	=16	=16	=16
8F\L	8cc\L	8ff\L	8aa\L	8aa\L	.
16F\L	16cc\L	16ff\L	16aa\L	16aa\L	.
16F\	16cc\	16ff\	16aa\	16aa\	.
16F\	16cc\	16ff\	16aa\	16aa\	.
16C\JJ	16e\JJ	16gg\JJ	16bb-\JJ	16bb-\JJ	7
=17	=17	=17	=17	=17	=17
8F/L	8c\L	8aa\L	8ccc\L	8ccc\L	.
16FF/L	8c\	8ff\	8aa\	8aa\	.
16FF/	.	.	.	.	.
16FF/	8c\J	8ff\J	8aa\J	8aa\J	.
16FF/JJ	.	.	.	.	.
=18	=18	=18	=18	=18	=18
8F\L	8c\L	8f/L	8a/L	8a/L	.
16F\L	16c\L	16f/L	16a/L	16a/L	.
16F\	16c\	16f/	16a/	16a/	.
16F\	16c\	16f/	16a/	16a/	.
16C\JJ	16e\JJ	16g/JJ	16b-/JJ	16b-/JJ	7
=19	=19	=19	=19	=19	=19
8F/L	8c\L	8a/L	8cc/L	8cc/L	.
16FF/L	8c\	8f/	8a/	8a/	.
16FF/	.	.	.	.	.
16FF/	8c\J	8f/J	8a/J	8a/J	.
16FF/JJ	.	.	.	.	.
=20	=20	=20	=20	=20	=20
8F\L	8c\L	8f/L	8a/L	8a/L	.
16F\L	16c\L	16f/L	16a/L	16a/L	.
16F\	16c\	16f/	16a/	16a/	.
16F\	16c\	16f/	16a/	16a/	.
16C\JJ	16e\JJ	16g/JJ	16b-/JJ	16b-/JJ	7
=21	=21	=21	=21	=21	=21
8F/L	8c\L	8a/L	8cc/L	8cc/L	.
16FF/L	8c\	8f/	8a/	8a/	.
16FF/	.	.	.	.	.
16FF/	8c\J	8f/J	8a/J	8a/J	.
16FF/JJ	.	.	.	.	.
=22	=22	=22	=22	=22	=22
8FF/L	8A/L	16.f/LL	16.f/LL	16.f/LL	.
.	.	32cc/Jk	32cc/Jk	32cc/Jk	.
8F/	8c/	8f/	8f/	8f/	.
8F/J	8A/J	8f/J	8f/J	8f/J	.
=23	=23	=23	=23	=23	=23
8FF/L	8A/L	16.f/LL	16.f/LL	16.f/LL	.
.	.	32cc/Jk	32cc/Jk	32cc/Jk	.
8F/	8c/	8f/	8f/	8f/	.
8F/J	8A/J	8f/J	8f/J	8f/J	.
=24	=24	=24	=24	=24	=24
16.FF/LL	8A/L	16.f/LL	16.f/LL	16.f/LL	.
32F/Jk	.	32f/Jk	32a/Jk	32a/Jk	.
8BB-/	8d/	8g/	8b-/	8b-/	.
8C/J	8c/J	8e/J	8g/J	8g/J	.
=25	=25	=25	=25	=25	=25
4FF/	4A/	4f/	4a/	4a/	.
8r	8r	8r	8r	8r	.
=26	=26	=26	=26	=26	=26
8FF/L	8A/L	16.f/LL	16.f/LL	16.f/LL	.
.	.	32cc/Jk	32cc/Jk	32cc/Jk	.
8F/	8c/	8f/	8f/	8f/	.
8F/J	8A/J	8f/J	8f/J	8f/J	.
=27	=27	=27	=27	=27	=27
8FF/L	8A/L	16.f/LL	16.f/LL	16.f/LL	.
.	.	32cc/Jk	32cc/Jk	32cc/Jk	.
8F/	8c/	8f/	8f/	8f/	.
8F/J	8A/J	8f/J	8f/J	8f/J	.
=28	=28	=28	=28	=28	=28
16.FF/LL	8A/L	16.f/LL	16.f/LL	16.f/LL	.
32F/Jk	.	32f/Jk	32a/Jk	32a/Jk	.
8BB-/	8d/	8g/	8b-/	8b-/	.
8C/J	8c/J	8e/J	8g/J	8g/J	.
=29	=29	=29	=29	=29	=29
4FF/	4A/	4f/	4f/	4f/	.
8r	8r	8r	8r	8r	.
=30	=30	=30	=30	=30	=30
4.r	4.r	4.r	4.r	8ff\L 8cc\	.
.	.	.	.	16ff\L 16cc\	.
.	.	.	.	16ff\ 16cc\	.
.	.	.	.	16ff\ 16cc\	.
.	.	.	.	16ff\JJ 16cc\	.
=31	=31	=31	=31	=31	=31
8A\L	4.r	4.r	4.r	8ff\L 8cc\	.
16F\L	.	.	.	8cc\ 8a\	.
16F\	.	.	.	.	.
16F\	.	.	.	8cc\J 8a\	.
16F\JJ	.	.	.	.	.
=32	=32	=32	=32	=32	=32
4FF/	4.r	4.r	4.r	8ff\L 8cc\	.
.	.	.	.	16ff\L 16cc\	.
.	.	.	.	16ff\ 16cc\	.
8r	.	.	.	16ff\ 16cc\	.
.	.	.	.	16ff\JJ 16cc\	.
=33	=33	=33	=33	=33	=33
8A\L	4.r	4.r	4.r	8ff\L 8cc\	.
16F\L	.	.	.	8cc\ 8a\	.
16F\	.	.	.	.	.
16F\	.	.	.	8cc\J 8a\	.
16F\JJ	.	.	.	.	.
=34	=34	=34	=34	=34	=34
4FF/	4.r	4.r	4.r	8aa\L 8ff\	.
.	.	.	.	16aa\L 16ff\	.
.	.	.	.	16aa\ 16ff\	.
8r	.	.	.	16aa\ 16ff\	.
.	.	.	.	16aa\JJ 16ff\	.
=35	=35	=35	=35	=35	=35
8F/L	4.r	4.r	4.r	8aa\L 8ff\	.
16AA/L	.	.	.	8ff\ 8cc\	.
16AA/	.	.	.	.	.
16AA/	.	.	.	8ff\J 8cc\	.
16AA/JJ	.	.	.	.	.
=36	=36	=36	=36	=36	=36
4FF/	4.r	4.r	4.r	8aa\L 8ff\	.
.	.	.	.	16aa\L 16ff\	.
.	.	.	.	16aa\ 16ff\	.
8r	.	.	.	16aa\ 16ff\	.
.	.	.	.	16aa\JJ 16ff\	.
=37	=37	=37	=37	=37	=37
8F/L	4.r	4.r	4.r	8aa\L 8ff\	.
16AA/L	.	.	.	8ff\ 8cc\	.
16AA/	.	.	.	.	.
16AA/	.	.	.	8ff\J 8cc\	.
16AA/JJ	.	.	.	.	.
=38	=38	=38	=38	=38	=38
4FF/	4.r	4.r	4.r	8.aa\L 8.ff\	.
.	.	.	.	16bb-\L 16gg\	.
8r	.	.	.	16aa\ 16ff\	.
.	.	.	.	16bb-\JJ 16gg\	.
=39	=39	=39	=39	=39	=39
4.r	4.r	4.r	4.r	8.aa\L 8.ff\	.
.	.	.	.	16bb-\L 16gg\	.
.	.	.	.	16aa\ 16ff\	.
.	.	.	.	16bb-\JJ 16gg\	.
*>M40	*>M40	*>M40	*>M40	*>M40	*>M40
!! Manchester partbooks.
=40	=40	=40	=40	=40	=40
4.r	4.r	4.r	4.r	8.aa\L 8.ff\	.
.	.	.	.	16bb-\L 16gg\	.
.	.	.	.	16aa\ 16ff\	.
.	.	.	.	16bb-\JJ 16gg\	.
*>S40	*>S40	*>S40	*>S40	*>S40	*>S40
!! Selfridge-Field edition.
=40	=40	=40	=40	=40	=40
4.r	4.r	4.r	4.r	16aa\LL 16ff\	.
.	.	.	.	16bb-\ 16gg\	.
.	.	.	.	16aa\ 16ff\	.
.	.	.	.	16bb-\ 16gg\	.
.	.	.	.	16aa\ 16ff\	.
.	.	.	.	16bb-\JJ 16gg\	.
*>etc2	*>etc2	*>etc2	*>etc2	*>etc2	*>etc2
=41	=41	=41	=41	=41	=41
8F/L	4.r	4.r	4.r	4.aa\ 4.ff\	.
16C/L	.	.	.	.	.
16C/	.	.	.	.	.
16AA/	.	.	.	.	.
16AA/JJ	.	.	.	.	.
=42	=42	=42	=42	=42	=42
8FF/L	8A/L	16.f/LL	16.f/LL	16.f/LL	.
.	.	32cc/Jk	32cc/Jk	32cc/Jk	.
8F/	8c/	8f/	8f/	8f/	.
8F/J	8A/J	8f/J	8f/J	8f/J	.
=43	=43	=43	=43	=43	=43
8FF/L	8A/L	16.f/LL	16.f/LL	16.f/LL	.
.	.	32cc/Jk	32cc/Jk	32cc/Jk	.
8F/	8c/	8f/	8f/	8f/	.
8F/J	8A/J	8f/J	8f/J	8f/J	.
=44	=44	=44	=44	=44	=44
!	!	! Amsterdam has Bf3 here, which is surely an error; cf. m3, m7, etc.	!	!	!
16.FF/LL	8AX/L	16.f/LL	16.f/LL	16.f/LL	.
32F/Jk	.	32a/Jk	32cc/Jk	32cc/Jk	.
8BB-/	8d/	8g/	8b-/	8b-/	.
8BBn/J	8d/J	8f/J	8a/J	8a/J	7 5
=45	=45	=45	=45	=45	=45
16C/LL	16e/LL	8c/L	8g/L	8g/L	.
16BB-/	16d/	.	.	.	.
16AA/	16c/	8c/	8g/	8g/	.
16GG/	16B-/	.	.	.	.
16FF/	16A/	8c/J	8g/J	8g/J	.
16EE/JJ	16G/JJ	.	.	.	.
=46	=46	=46	=46	=46	=46
8FF/L	8A/L	16.f/LL	16.f/LL	16.f/LL	.
.	.	32cc/Jk	32cc/Jk	32cc/Jk	.
8F/	8c/	8f/	8f/	8f/	.
8F/J	8A/J	8f/J	8f/J	8f/J	.
=47	=47	=47	=47	=47	=47
8FF/L	8A/L	16.f/LL	16.f/LL	16.f/LL	.
.	.	32cc/Jk	32cc/Jk	32cc/Jk	.
8F/	8c/	8f/	8f/	8f/	.
8F/J	8A/J	8f/J	8f/J	8f/J	.
=48	=48	=48	=48	=48	=48
16.FF/LL	8A/L	16.f/LL	16.f/LL	16.f/LL	.
32F/Jk	.	32f/Jk	32a/Jk	32a/Jk	.
8BB-/	8d/	8g/	8b-/	8b-/	6
8C/J	8c/J	8e/J	8g/J	8g/J	.
=49	=49	=49	=49	=49	=49
4FF/	4A/	4f/	4f/	8ff/L 8cc/	.
.	.	.	.	16cc/L 16a/	.
.	.	.	.	16cc/ 16a/	.
8r	8r	8r	8r	16a/ 16f/	.
.	.	.	.	16f/JJ 16c/	.
=50	=50	=50	=50	=50	=50
8FF/L	4.r	4.r	4.r	16f/LL 16A/	.
.	.	.	.	16f/ 16c/	.
8F/	.	.	.	16f/ 16A/	.
.	.	.	.	16f/ 16c/	.
8FF/J	.	.	.	16f/ 16A/	.
.	.	.	.	16f/JJ 16c/	.
=51	=51	=51	=51	=51	=51
4FF/	4.r	4.r	4.r	8ff/L 8cc/	.
.	.	.	.	16cc/L 16a/	.
.	.	.	.	16cc/ 16a/	.
8r	.	.	.	16a/ 16f/	.
.	.	.	.	16f/JJ 16c/	.
=52	=52	=52	=52	=52	=52
8FF/L	4.r	4.r	4.r	16f/LL 16A/	.
.	.	.	.	16f/ 16c/	.
8F/	.	.	.	16f/ 16A/	.
.	.	.	.	16f/ 16c/	.
8FF/J	.	.	.	16f/ 16A/	.
.	.	.	.	16f/JJ 16c/	.
=53	=53	=53	=53	=53	=53
4FF/	4.r	4.r	4.r	8ff\L 8cc\	.
.	.	.	.	16ff\L 16a\	.
.	.	.	.	16ff\ 16a\	.
8r	.	.	.	16a\ 16f\	.
.	.	.	.	16a\JJ 16f\	.
=54	=54	=54	=54	=54	=54
4BB-/	4.r	4.r	4.r	16ff\LL 16dd\	.
.	.	.	.	16ff\ 16dd\	.
.	.	.	.	16ff\ 16b-\	.
.	.	.	.	16ff\ 16b-\	.
8r	.	.	.	16b-\ 16f\	.
.	.	.	.	16b-\JJ 16f\	.
=55	=55	=55	=55	=55	=55
4BBn/	4.r	4.r	4.r	8gg\L 8dd\	6
.	.	.	.	16gg\L 16bn\	.
.	.	.	.	16gg\ 16b\	.
8r	.	.	.	16b\ 16g\	.
.	.	.	.	16b\JJ 16g\	.
=56	=56	=56	=56	=56	=56
4C/	4.r	4.r	4.r	16gg\LL 16ee\	.
.	.	.	.	16gg\ 16ee\	.
.	.	.	.	16gg\ 16cc\	.
.	.	.	.	16gg\ 16cc\	.
8r	.	.	.	16cc\ 16g\	.
.	.	.	.	16cc\JJ 16g\	.
=57	=57	=57	=57	=57	=57
4C#/	4.r	4.r	4.r	8aa\L 8ee\	6
.	.	.	.	16aa\L 16cc#\	.
.	.	.	.	16aa\ 16cc#\	.
8r	.	.	.	16cc#\ 16a\	.
.	.	.	.	16cc#\JJ 16a\	.
=58	=58	=58	=58	=58	=58
4D\	4.r	4.r	4.r	16aa\LL 16ff\	.
.	.	.	.	16aa\ 16ff\	.
.	.	.	.	16aa\ 16dd\	.
.	.	.	.	16aa\ 16dd\	.
8r	.	.	.	16dd\ 16d\	.
.	.	.	.	16dd\JJ 16d\	.
=59	=59	=59	=59	=59	=59
8G/L	4.r	4.r	4.r	(48bbn\LLL	7 n
.	.	.	.	48ff\	.
.	.	.	.	48g\	.
.	.	.	.	48G\	.
.	.	.	.	48g\	.
.	.	.	.	48ff\JJJ)	.
16GG/L	.	.	.	(48bb\LLL	.
.	.	.	.	48ff\	.
.	.	.	.	48g\	.
16GG/	.	.	.	48G\	.
.	.	.	.	48g\	.
.	.	.	.	48ff\JJJ)	.
16GG/	.	.	.	(48bb\LLL	.
.	.	.	.	48ff\	.
.	.	.	.	48g\	.
16GG/JJ	.	.	.	48G\	.
.	.	.	.	48g\	.
.	.	.	.	48ff\JJJ)	.
=60	=60	=60	=60	=60	=60
4GG/	4.r	4.r	4.r	(48ddd\LLL	.
.	.	.	.	48ff\	.
.	.	.	.	48g\	.
.	.	.	.	48G\	.
.	.	.	.	48g\	.
.	.	.	.	48ff\JJJ)	.
.	.	.	.	(48ddd\LLL	.
.	.	.	.	48ff\	.
.	.	.	.	48g\	.
.	.	.	.	48G\	.
.	.	.	.	48g\	.
.	.	.	.	48ff\JJJ)	.
8r	.	.	.	(48ddd\LLL	.
.	.	.	.	48ff\	.
.	.	.	.	48g\	.
.	.	.	.	48G\	.
.	.	.	.	48g\	.
.	.	.	.	48ff\JJJ)	.
=61	=61	=61	=61	=61	=61
8G/L	4.r	4.r	4.r	(48ddd\LLL	6 5
.	.	.	.	48ee\	.
.	.	.	.	48g\	.
.	.	.	.	48G\	.
.	.	.	.	48g\	.
.	.	.	.	48ee\JJJ)	.
16GG/L	.	.	.	(48ddd\LLL	.
.	.	.	.	48ee\	.
.	.	.	.	48g\	.
16GG/	.	.	.	48G\	.
.	.	.	.	48g\	.
.	.	.	.	48ee\JJJ)	.
16GG/	.	.	.	(48ddd\LLL	.
.	.	.	.	48ee\	.
.	.	.	.	48g\	.
16GG/JJ	.	.	.	48G\	.
.	.	.	.	48g\	.
.	.	.	.	48ee\JJJ)	.
=62	=62	=62	=62	=62	=62
4GG/	4.r	4.r	4.r	(48ccc\LLL	6 4
.	.	.	.	48ee\	.
.	.	.	.	48g\	.
.	.	.	.	48G\	.
.	.	.	.	48g\	.
.	.	.	.	48ee\JJJ)	.
.	.	.	.	(48ccc\LLL	.
.	.	.	.	48ee\	.
.	.	.	.	48g\	.
.	.	.	.	48G\	.
.	.	.	.	48g\	.
.	.	.	.	48ee\JJJ)	.
8r	.	.	.	(48ccc\LLL	.
.	.	.	.	48ee\	.
.	.	.	.	48g\	.
.	.	.	.	48G\	.
.	.	.	.	48g\	.
.	.	.	.	48ee\JJJ)	.
=63	=63	=63	=63	=63	=63
8G/L	4.r	4.r	4.r	(48bbn\LLL	5 n
.	.	.	.	48dd\	.
.	.	.	.	48g\	.
.	.	.	.	48G\	.
.	.	.	.	48g\	.
.	.	.	.	48dd\JJJ)	.
16GG/L	.	.	.	(48bb\LLL	.
.	.	.	.	48dd\	.
.	.	.	.	48g\	.
16GG/	.	.	.	48G\	.
.	.	.	.	48g\	.
.	.	.	.	48dd\JJJ)	.
16GG/	.	.	.	(48bb\LLL	.
.	.	.	.	48dd\	.
.	.	.	.	48g\	.
16GG/JJ	.	.	.	48G\	.
.	.	.	.	48g\	.
.	.	.	.	48dd\JJJ)	.
=64	=64	=64	=64	=64	=64
4GG/	4.r	4.r	4.r	(48ccc\LLL	6 4
.	.	.	.	48ee\	.
.	.	.	.	48g\	.
.	.	.	.	48G\	.
.	.	.	.	48g\	.
.	.	.	.	48ee\JJJ)	.
.	.	.	.	(48ccc\LLL	.
.	.	.	.	48ee\	.
.	.	.	.	48g\	.
.	.	.	.	48G\	.
.	.	.	.	48g\	.
.	.	.	.	48ee\JJJ)	.
8r	.	.	.	(48ccc\LLL	.
.	.	.	.	48ee\	.
.	.	.	.	48g\	.
.	.	.	.	48G\	.
.	.	.	.	48g\	.
.	.	.	.	48ee\JJJ)	.
=65	=65	=65	=65	=65	=65
8G/L	4.r	4.r	4.r	(48bbn\LLL	5 n
.	.	.	.	48dd\	.
.	.	.	.	48g\	.
.	.	.	.	48G\	.
.	.	.	.	48g\	.
.	.	.	.	48dd\JJJ)	.
16GG/L	.	.	.	(48bb\LLL	.
.	.	.	.	48dd\	.
.	.	.	.	48g\	.
16GG/	.	.	.	48G\	.
.	.	.	.	48g\	.
.	.	.	.	48dd\JJJ)	.
16GG/	.	.	.	(48bb\LLL	.
.	.	.	.	48dd\	.
.	.	.	.	48g\	.
16GG/JJ	.	.	.	48G\	.
.	.	.	.	48g\	.
.	.	.	.	48dd\JJJ)	.
=66	=66	=66	=66	=66	=66
4GG/	4.r	4.r	4.r	(48ccc\LLL	6 4
.	.	.	.	48ee\	.
.	.	.	.	48g\	.
.	.	.	.	48G\	.
.	.	.	.	48g\	.
.	.	.	.	48ee\JJJ)	.
.	.	.	.	(48ccc\LLL	.
.	.	.	.	48ee\	.
.	.	.	.	48g\	.
.	.	.	.	48G\	.
.	.	.	.	48g\	.
.	.	.	.	48ee\JJJ)	.
8r	.	.	.	(48ccc\LLL	.
.	.	.	.	48ee\	.
.	.	.	.	48g\	.
.	.	.	.	48G\	.
.	.	.	.	48g\	.
.	.	.	.	48ee\JJJ)	.
=67	=67	=67	=67	=67	=67
8G/L	4.r	4.r	4.r	(48ccc\LLL	5 4
.	.	.	.	48dd\	.
.	.	.	.	48g\	.
.	.	.	.	48G\	.
.	.	.	.	48g\	.
.	.	.	.	48dd\JJJ)	.
16GG/L	.	.	.	(48ccc\LLL	.
.	.	.	.	48dd\	.
.	.	.	.	48g\	.
16GG/	.	.	.	48G\	.
.	.	.	.	48g\	.
.	.	.	.	48dd\JJJ)	.
16GG/	.	.	.	(48ccc\LLL	.
.	.	.	.	48dd\	.
.	.	.	.	48g\	.
16GG/JJ	.	.	.	48G\	.
.	.	.	.	48g\	.
.	.	.	.	48dd\JJJ)	.
=68	=68	=68	=68	=68	=68
8G/L	4.r	4.r	4.r	(48bbn\LLL	n
.	.	.	.	48dd\	.
.	.	.	.	48g\	.
.	.	.	.	48G\	.
.	.	.	.	48g\	.
.	.	.	.	48dd\JJJ)	.
16GG/L	.	.	.	(48bb\LLL	.
.	.	.	.	48dd\	.
.	.	.	.	48g\	.
16GG/	.	.	.	48G\	.
.	.	.	.	48g\	.
.	.	.	.	48dd\JJJ)	.
16GG/	.	.	.	(48bb\LLL	.
.	.	.	.	48dd\	.
.	.	.	.	48g\	.
16GG/JJ	.	.	.	48G\	.
.	.	.	.	48g\	.
.	.	.	.	48dd\JJJ)	.
*>A69	*>A69	*>A69	*>A69	*>A69	*>A69
!! Amsterdam print.
=69	=69	=69	=69	=69	=69
8C\L	8e\L	16.cc\LL	16.cc\LL	4.G\LL 4.ccc/ 4.ee/ 4.g/	.
.	.	32gg\Jk	32gg\Jk	.	.
8c\	8g\	8cc\	8cc\	.	.
8c\J	8e\J	8cc\J	8cc\J	.	.
*>S69	*>S69	*>S69	*>S69	*>S69	*>S69
!! Selfridge-Field edition.
=69	=69	=69	=69	=69	=69
8C\L	8e\L	16.cc\LL	16.cc\LL	16.G\LL 16.ccc/ 16.ee/ 16.g/	.
.	.	32gg\Jk	32gg\Jk	32gg\Jk	.
8c\	8g\	8cc\	8cc\	8cc\	.
8c\J	8e\J	8cc\J	8cc\J	8cc\J	.
*>etc3	*>etc3	*>etc3	*>etc3	*>etc3	*>etc3
=70	=70	=70	=70	=70	=70
8C\L	8e\L	16.cc\LL	16.cc\LL	16.cc\LL	.
.	.	32gg\Jk	32gg\Jk	32gg\Jk	.
8c\	8g\	8cc\	8cc\	8cc\	.
8c\J	8e\J	8cc\J	8cc\J	8cc\J	.
=71	=71	=71	=71	=71	=71
8C\L	8e\L	16.cc\LL	16.cc\LL	16.cc\LL	.
.	.	32ee\Jk	32gg\Jk	32gg\Jk	.
8F\	8a\	8dd\	8ff\	8ff\	.
8F#\J	8a\J	8cc\J	8ee\J	8ee\J	7 5
=72	=72	=72	=72	=72	=72
16G\LL	16bn\LL	8g/L	8dd\L	8dd\L	n
16F\	16a\	.	.	.	.
16E\	16g\	8g/	8dd\	8dd\	.
16D\	16f\	.	.	.	.
16C\	16e\	8g/J	8dd\J	8dd\J	.
16BBn\JJ	16d\JJ	.	.	.	.
=73	=73	=73	=73	=73	=73
8C\L	8e\L	16.cc\LL	16.cc\LL	16.cc\LL	.
.	.	32gg\Jk	32gg\Jk	32gg\Jk	.
8c\	8g\	8cc\	8cc\	8cc\	.
8c\J	8e\J	8cc\J	8cc\J	8cc\J	.
=74	=74	=74	=74	=74	=74
8C\L	8e\L	16.cc\LL	16.cc\LL	16.cc\LL	.
.	.	32gg\Jk	32gg\Jk	32gg\Jk	.
8c\	8g\	8cc\	8cc\	8cc\	.
8c\J	8e\J	8cc\J	8cc\J	8cc\J	.
=75	=75	=75	=75	=75	=75
16.C\LL	8e\L	16.cc\LL	16.cc\LL	16.cc\LL	.
32c\Jk	.	32cc\Jk	32ee\Jk	32ee\Jk	.
8F\	8a\	8dd\	8ff\	8ff\	6
8G\J	8g\J	8b\J	8dd\J	8dd\J	.
=76	=76	=76	=76	=76	=76
4C/	4e\	4cc\	4ee\	24c/LL	.
.	.	.	.	24G/	.
.	.	.	.	24c/JJ	.
.	.	.	.	24e/LL	.
.	.	.	.	24c/	.
.	.	.	.	24e/JJ	.
8r	8r	8r	8r	24g/LL	.
.	.	.	.	24e/	.
.	.	.	.	24g/JJ	.
=77	=77	=77	=77	=77	=77
4.r	4.r	4.r	4.r	24e/LL	.
.	.	.	.	24c/	.
.	.	.	.	24e/JJ	.
.	.	.	.	24c/LL	.
.	.	.	.	24G/	.
.	.	.	.	24c/JJ	.
.	.	.	.	24e/LL	.
.	.	.	.	24c/	.
.	.	.	.	24e/JJ	.
=78	=78	=78	=78	=78	=78
4C/	4c\	4c/	4c/	24g/LL	.
.	.	.	.	24e/	.
.	.	.	.	24g/JJ	.
.	.	.	.	24cc\LL	.
*	*	*	*	*strophe	*
*	*	*	*	*^	*
*	*	*	*	*^	*	*
*	*	*	*	*S/S	*S/M	*S/A	*
.	.	.	.	24g\	24g\	24a\	.
*	*	*	*	*S/fin	*S/fin	*S/fin	*
*	*	*	*	*v	*v	*v	*
*	*	*	*	*S-	*
.	.	.	.	24cc\JJ	.
8r	8r	8r	8r	24ee\LL	.
.	.	.	.	24cc\	.
.	.	.	.	24ee\JJ	.
=79	=79	=79	=79	=79	=79
4.r	4.r	4.r	4.r	24cc\LL	.
.	.	.	.	24g\	.
.	.	.	.	24cc\JJ	.
.	.	.	.	24g/LL	.
.	.	.	.	24e/	.
.	.	.	.	24g/JJ	.
.	.	.	.	24cc\LL	.
.	.	.	.	24g\	.
.	.	.	.	24cc\JJ	.
=80	=80	=80	=80	=80	=80
4C/	4c\	4c/	4c/	24ee\LL	.
.	.	.	.	24cc\	.
.	.	.	.	24ee\JJ	.
.	.	.	.	24cc\LL	.
.	.	.	.	24g\	.
.	.	.	.	24cc\JJ	.
8r	8r	8r	8r	24g/LL	.
.	.	.	.	24e/	.
.	.	.	.	24g/JJ	.
=81	=81	=81	=81	=81	=81
4.r	4.r	4.r	4.r	24cc\LL	.
.	.	.	.	24g\	.
.	.	.	.	24cc\JJ	.
.	.	.	.	24ee\LL	.
.	.	.	.	24cc\	.
.	.	.	.	24ee\JJ	.
.	.	.	.	24gg\LL	.
.	.	.	.	24ee\	.
.	.	.	.	24gg\JJ	.
=82	=82	=82	=82	=82	=82
8C/	8r	8r	8r	8ccc\	.
8r	8c\	8r	8r	8r	.
*strophe	*	*	*	*	*
*^	*	*	*	*	*
*^	*	*	*	*	*	*
*S/S	*S/A	*S/M	*	*	*	*	*
16r	16r	16.r	8r	8c/	8c/	8r	.
16C/	16C/	.	.	.	.	.	.
.	.	32C/	.	.	.	.	.
*S/fin	*S/fin	*S/fin	*	*	*	*	*
*v	*v	*v	*	*	*	*	*
*S-	*	*	*	*	*
=83	=83	=83	=83	=83	=83
8C/	16r	8r	8r	4.r	.
.	16c\	.	.	.	.
8r	8c\	16r	16r	.	.
.	.	16c/	16c/	.	.
*>S83	*>S83	*>S83	*>S83	*>S83	*>S83
!! Selfridge-Field edition.
16r	16r	16c/	16c/	.	.
16C/	16G/	32r	32r	.	.
.	.	32c/	32e/	.	.
*>M83	*>M83	*>M83	*>M83	*>M83	*>M83
!! Manchester partbooks.
16.r	16.r	16c/	16c/	.	.
.	.	32r	32r	.	.
32C/	32G/	32c/	32e/	.	.
*>etc4	*>etc4	*>etc4	*>etc4	*>etc4	*>etc4
=84	=84	=84	=84	=84	=84
32C/LLL	32G/LLL	32c/LLL	32e/LLL	4.r	.
32GG/	32B-/	32d/	32g/	.	.
32C/	32G/	32c/	32e/	.	.
32GG/JJJ	32B-/JJJ	32d/JJJ	32g/JJJ	.	.
32C/LLL	32G/LLL	32c/LLL	32e/LLL	.	.
32GG/	32B-/	32d/	32g/	.	.
32C/	32G/	32c/	32e/	.	.
32GG/JJJ	32B-/JJJ	32d/JJJ	32g/JJJ	.	.
32C/LLL	32G/LLL	32c/LLL	32e/LLL	.	.
32GG/	32B-/	32d/	32g/	.	.
32C/	32G/	32c/	32e/	.	.
32GG/JJJ	32B-/JJJ	32d/JJJ	32g/JJJ	.	.
=85	=85	=85	=85	=85	=85
32C/LLL	32G/LLL	32c/LLL	32e/LLL	4.r	.
32GG/	32B-/	32d/	32g/	.	.
32C/	32G/	32c/	32e/	.	.
32GG/JJJ	32B-/JJJ	32d/JJJ	32g/JJJ	.	.
32C/LLL	32G/LLL	32c/LLL	32e/LLL	.	.
32GG/	32B-/	32d/	32g/	.	.
32C/	32G/	32c/	32e/	.	.
32GG/JJJ	32B-/JJJ	32d/JJJ	32g/JJJ	.	.
32C/LLL	32G/LLL	32c/LLL	32e/LLL	.	.
32GG/	32B-/	32d/	32g/	.	.
32C/	32G/	32c/	32e/	.	.
32GG/JJJ	32B-/JJJ	32d/JJJ	32g/JJJ	.	.
=86	=86	=86	=86	=86	=86
4C/	4G/	4c/	4e/	24ccc\LL	.
.	.	.	.	(48bbn\L	.
.	.	.	.	48aa\	.
.	.	.	.	48gg\	.
.	.	.	.	48ff\JJJ	.
.	.	.	.	24ee\LL	.
.	.	.	.	24dd\	.
.	.	.	.	24cc\JJ)	.
8r	8r	8r	8r	24ee\LL	.
.	.	.	.	24gg\	.
*	*	*	*	*strophe	*
*	*	*	*	*^	*
*	*	*	*	*^	*	*
*	*	*	*	*S/S	*S/M	*S/A	*
.	.	.	.	24bb-\JJ	24bb-\JJ	24bb\JJ	.
*	*	*	*	*S/fin	*S/fin	*S/fin	*
*	*	*	*	*v	*v	*v	*
*	*	*	*	*S-	*
=87	=87	=87	=87	=87	=87
4F\	4f\	4f/	4f/	24aa\LL	.
.	.	.	.	24ff\	.
.	.	.	.	24cc\JJ	.
.	.	.	.	24a/LL	.
.	.	.	.	24f/	.
.	.	.	.	24c/JJ	.
8r	8r	8r	8r	16f/	.
.	.	.	.	16r	.
=88	=88	=88	=88	=88	=88
4F#\	4f#\	4f#/	4f#/	24ddd\LL	.
.	.	.	.	(48ccc\L	.
.	.	.	.	48bb-\	.
.	.	.	.	48aa\	.
.	.	.	.	48gg\JJJ	.
.	.	.	.	24ff#\LL	.
.	.	.	.	24ee\	.
.	.	.	.	24dd\JJ)	.
8r	8r	8r	8r	24ff#\LL	.
.	.	.	.	24aa\	.
.	.	.	.	24ccc\JJ	.
=89	=89	=89	=89	=89	=89
4G\	4g\	4g/	4g/	24bbn\LL	.
.	.	.	.	24gg\	.
.	.	.	.	24dd\JJ	.
.	.	.	.	24bn/LL	.
.	.	.	.	24g/	.
.	.	.	.	24d/JJ	.
8r	8r	8r	8r	16g/	.
.	.	.	.	16r	.
=90	=90	=90	=90	=90	=90
4G#\	4g#\	4g#/	4g#/	24eee\LL	6
.	.	.	.	(48ddd\L	.
.	.	.	.	48ccc\	.
.	.	.	.	48bbn\	.
.	.	.	.	48aa\JJJ	.
.	.	.	.	24gg#\LL	.
.	.	.	.	24ff#\	.
.	.	.	.	24ee\JJ)	.
8r	8r	8r	8r	24gg#\LL	.
.	.	.	.	24bb\	.
.	.	.	.	24ddd\JJ	.
=91	=91	=91	=91	=91	=91
4A\	4a\	4a/	4a/	24ccc\LL	.
.	.	.	.	24aa\	.
.	.	.	.	24ee\JJ	.
.	.	.	.	24cc/LL	.
.	.	.	.	24a/	.
.	.	.	.	24e/JJ	.
8r	8r	8r	8r	16a/	.
.	.	.	.	16r	.
=92	=92	=92	=92	=92	=92
8GG/	8r	8r	8r	24ddd\LL	n
.	.	.	.	24fff\	.
.	.	.	.	24ddd\JJ	.
8r	8G/	8r	8r	24bbn\LL	.
.	.	.	.	24ddd\	.
.	.	.	.	24bb\JJ	.
16r	8r	8G/	8G/	24gg\LL	.
.	.	.	.	24bb\	.
16GG/	.	.	.	.	.
.	.	.	.	24gg\JJ	.
=93	=93	=93	=93	=93	=93
8GG/	16r	8r	8r	24dd\LL	.
.	.	.	.	24gg\	.
.	16G/	.	.	.	.
.	.	.	.	24dd\JJ	.
8r	8G/	16r	16r	24bn\LL	.
.	.	.	.	24dd\	.
.	.	16G/	16G/	.	.
.	.	.	.	24b\JJ	.
*>S93	*>S93	*>S93	*>S93	*>S93	*>S93
!! Selfridge-Field edition.
16r	16r	16G/	16G/	24g/LL	.
.	.	.	.	24b/	.
16GG/	16Bn/	32r	32r	.	.
.	.	.	.	24g/JJ	.
.	.	32d/	32Bn/	.	.
*>M93	*>M93	*>M93	*>M93	*>M93	*>M93
!! Manchester partbooks.
16.r	16.r	16G/	16G/	24g/LL	.
.	.	.	.	24b/	.
.	.	32r	32r	.	.
.	.	.	.	24g/JJ	.
16GG/	16Bn/	32d/	32Bn/	.	.
*>etc5	*>etc5	*>etc5	*>etc5	*>etc5	*>etc5
=94	=94	=94	=94	=94	=94
32GG/LLL	32Bn/LLL	32d/LLL	32Bn/LLL	24d/LL	n
32BBn/	32G/	32g/	32d/	.	.
.	.	.	.	24Bn/	.
32GG/	32B/	32d/	32B/	.	.
.	.	.	.	24d/JJ	.
32BB/JJJ	32G/JJJ	32g/JJJ	32d/JJJ	.	.
32GG/LLL	32B/LLL	32d/LLL	32B/LLL	24g/LL	.
32BB/	32G/	32g/	32d/	.	.
.	.	.	.	24d/	.
32GG/	32B/	32d/	32B/	.	.
.	.	.	.	24g/JJ	.
32BB/JJJ	32G/JJJ	32g/JJJ	32d/JJJ	.	.
32GG/LLL	32B/LLL	32d/LLL	32B/LLL	16bn\	.
32BB/	32G/	32g/	32d/	.	.
32GG/	32B/	32d/	32B/	16r	.
32BB/JJJ	32G/JJJ	32g/JJJ	32d/JJJ	.	.
=95	=95	=95	=95	=95	=95
32GG/LLL	32Bn/LLL	32d/LLL	32Bn/LLL	24g/LL	.
32BBn/	32G/	32g/	32d/	.	.
.	.	.	.	24d/	.
32GG/	32B/	32d/	32B/	.	.
.	.	.	.	24g/JJ	.
32BB/JJJ	32G/JJJ	32g/JJJ	32d/JJJ	.	.
32GG/LLL	32B/LLL	32d/LLL	32B/LLL	24bn/LL	.
32BB/	32G/	32g/	32d/	.	.
.	.	.	.	24g/	.
32GG/	32B/	32d/	32B/	.	.
.	.	.	.	24b/JJ	.
32BB/JJJ	32G/JJJ	32g/JJJ	32d/JJJ	.	.
32GG/LLL	32B/LLL	32d/LLL	32B/LLL	16dd\	.
32BB/	32G/	32g/	32d/	.	.
32GG/	32B/	32d/	32B/	16r	.
32BB/JJJ	32G/JJJ	32g/JJJ	32d/JJJ	.	.
=96	=96	=96	=96	=96	=96
! Amsterdam print: Tail missing from note.	!	!	!	!	!
8XGG/	8G/	8d/	8Bn/	24bn/LL	.
.	.	.	.	24g/	.
.	.	.	.	24b/JJ	.
8r	8r	8r	8r	24dd\LL	.
.	.	.	.	24b\	.
.	.	.	.	24dd\JJ	.
8r	8r	8r	8r	16gg\	.
.	.	.	.	16r	.
=97	=97	=97	=97	=97	=97
8C\L	8e\L	16.cc\LL	16.cc\LL	16.cc\LL	.
.	.	32gg\Jk	32gg\Jk	32gg\Jk	.
8c\	8g\	8cc\	8cc\	8cc\	.
8c\J	8e\J	8cc\J	8cc\J	8cc\J	.
=98	=98	=98	=98	=98	=98
8C\L	8e\L	16.cc\LL	16.cc\LL	16.cc\LL	.
.	.	32gg\Jk	32gg\Jk	32gg\Jk	.
8c\	8g\	8cc\	8cc\	8cc\	.
8c\J	8e\J	8cc\J	8cc\J	8cc\J	.
=99	=99	=99	=99	=99	=99
8C\L	8e\L	16.cc\LL	16.cc\LL	16.cc\LL	.
.	.	32ee\Jk	32gg\Jk	32gg\Jk	.
8F\	8a\	8dd\	8ff\	8ff\	.
8F#\J	8a\J	8cc\J	8ee\J	8ee\J	7 5
=100	=100	=100	=100	=100	=100
16G\LL	16bn\LL	8g/L	8dd\L	8dd\L	.
16F\	16a\	.	.	.	.
16E\	16g\	8g/	8dd\	8dd\	.
16D\	16f\	.	.	.	.
16C\	16e\	8g/J	8dd\J	8dd\J	.
16BBn\JJ	16d\JJ	.	.	.	.
=101	=101	=101	=101	=101	=101
8C\L	8e\L	16.cc\LL	16.cc\LL	16.cc\LL	.
.	.	32gg\Jk	32gg\Jk	32gg\Jk	.
8c\	8g\	8cc\	8cc\	8cc\	.
8c\J	8e\J	8cc\J	8cc\J	8cc\J	.
*>S102	*>S102	*>S102	*>S102	*>S102	*>S102
!! Selfridge-Field edition.
=102	=102	=102	=102	=102	=102
8C\L	8e\L	16.cc\LL	16.cc\LL	16.cc\LL	.
.	.	32gg\Jk	32gg\Jk	32gg\Jk	.
8c\	8g\	8cc\	8cc\	8cc\	.
8c\J	8e\J	8cc\J	8cc\J	8cc\J	.
*>A102	*>A102	*>A102	*>A102	*>A102	*>A102
!! Amsterdam print. (Measure 102 missing.)
*>etc6	*>etc6	*>etc6	*>etc6	*>etc6	*>etc6
=103	=103	=103	=103	=103	=103
16.C\LL	8e\L	16.cc\LL	16.cc\LL	16.cc\LL	.
32c\Jk	.	32cc\Jk	32ee\Jk	32ee\Jk	.
8F\	8a\	8dd\	8ff\	8ff\	.
8G\J	8g\J	8b\J	8dd\J	8dd\J	.
=104	=104	=104	=104	=104	=104
4C/	4e\	4cc\	4ee\	24cc/LL	.
.	.	.	.	24g/	.
.	.	.	.	24cc/JJ	.
.	.	.	.	24g/LL	.
.	.	.	.	24e/	.
.	.	.	.	24g/JJ	.
8r	8r	8r	8r	24cc/LL	.
.	.	.	.	24g/	.
.	.	.	.	24cc/JJ	.
=105	=105	=105	=105	=105	=105
4.r	4.r	4.r	4.r	24ee\LL	.
.	.	.	.	24cc\	.
.	.	.	.	24ee\JJ	.
.	.	.	.	24gg\LL	.
.	.	.	.	24ee\	.
.	.	.	.	24gg\JJ	.
.	.	.	.	24bb-\LL	.
.	.	.	.	24gg\	.
.	.	.	.	24bb-\JJ	.
=106	=106	=106	=106	=106	=106
8F\	8r	8r	8r	24aa\LL	.
.	.	.	.	24ff\	.
.	.	.	.	24aa\JJ	.
8r	8f\	8r	8r	24ff\LL	.
.	.	.	.	24cc\	.
.	.	.	.	24ff\JJ	.
8r	8r	8f/	8f/	24cc\LL	.
.	.	.	.	24a\	.
.	.	.	.	24cc\JJ	.
=107	=107	=107	=107	=107	=107
4.r	4.r	4.r	4.r	24a/LL	.
.	.	.	.	24f/	.
.	.	.	.	24a/JJ	.
.	.	.	.	24cc\LL	.
.	.	.	.	24a\	.
.	.	.	.	24cc\JJ	.
.	.	.	.	24ee-\LL	.
.	.	.	.	24cc\	.
.	.	.	.	24ee-\JJ	.
=108	=108	=108	=108	=108	=108
8BB-/	8r	8r	8r	24dd\LL	.
.	.	.	.	24b-\	.
.	.	.	.	24dd\JJ	.
8r	8B-/	8r	8r	24ff\LL	.
.	.	.	.	24dd\	.
.	.	.	.	24ff\JJ	.
8r	8r	8B-/	8B-/	24bb-\LL	.
.	.	.	.	24ff\	.
.	.	.	.	24bb-\JJ	.
=109	=109	=109	=109	=109	=109
8AA/	8r	8r	8r	24cc#\LL	7 #
.	.	.	.	24g\	.
.	.	.	.	24cc#\JJ	.
8r	8A/	8r	8r	24ee\LL	.
.	.	.	.	24cc#\	.
.	.	.	.	24ee\JJ	.
8r	8r	8A/	8A/	24gg\LL	.
.	.	.	.	24ee\	.
.	.	.	.	24gg\JJ	.
=110	=110	=110	=110	=110	=110
8D\	8r	8r	8r	24ff\LL	.
.	.	.	.	24dd\	.
.	.	.	.	24ff\JJ	.
8r	8d\	8r	8r	24aa\LL	.
.	.	.	.	24ff\	.
.	.	.	.	24aa\JJ	.
8r	8r	8d/	8d/	24ff\LL	.
.	.	.	.	24dd\	.
.	.	.	.	24ff\JJ	.
=111	=111	=111	=111	=111	=111
8E\	8r	8r	8r	24g#/LL	7 #
.	.	.	.	24e/	.
.	.	.	.	24g#/JJ	.
8r	8e\	8r	8r	24bn/LL	.
.	.	.	.	24g#/	.
.	.	.	.	24b/JJ	.
8r	8r	8e/	8e/	24dd\LL	.
.	.	.	.	24b\	.
.	.	.	.	24dd\JJ	.
=112	=112	=112	=112	=112	=112
8AA/	8r	8r	8r	24cc\LL	.
.	.	.	.	24a\	.
.	.	.	.	24cc\JJ	.
8r	8f#\	8r	8r	24ee-\LL	.
.	.	.	.	24cc\	.
.	.	.	.	24ee-\JJ	.
8r	8r	8f#/	8f#/	24cc\LL	.
.	.	.	.	24a\	.
.	.	.	.	24cc\JJ	.
=113	=113	=113	=113	=113	=113
8GG/	8r	8r	8r	24b-/LL	.
.	.	.	.	24g/	.
.	.	.	.	24b-/JJ	.
8r	8e\	8r	8r	24dd\LL	.
.	.	.	.	24b-\	.
.	.	.	.	24dd\JJ	.
8r	8r	8e/	8e/	24b-/LL	.
.	.	.	.	24g/	.
.	.	.	.	24b-/JJ	.
=114	=114	=114	=114	=114	=114
8F\	8r	8r	8r	24a/LL	.
.	.	.	.	24f/	.
.	.	.	.	24a/JJ	.
8r	8fn\	8r	8r	24cc\LL	.
.	.	.	.	24a\	.
.	.	.	.	24cc\JJ	.
8r	8r	8fn/	8fn/	24ff\LL	.
.	.	.	.	24cc\	.
.	.	.	.	24ff\JJ	.
=115	=115	=115	=115	=115	=115
8F\	8r	8r	8r	24aa\LL	.
.	.	.	.	24ff\	.
.	.	.	.	24aa\JJ	.
8r	8f\	8r	8r	24ff\LL	.
.	.	.	.	24cc\	.
.	.	.	.	24ff\JJ	.
8r	8r	8f/	8f/	24cc\LL	.
.	.	.	.	24a\	.
.	.	.	.	24cc\JJ	.
=116	=116	=116	=116	=116	=116
8FF/L	8A/L	16.f/LL	16.f/LL	16.f/LL	.
.	.	32cc/Jk	32cc/Jk	32cc/Jk	.
8F/	8c/	8f/	8f/	8f/	.
8F/J	8A/J	8f/J	8f/J	8f/J	.
=117	=117	=117	=117	=117	=117
8FF/L	8A/L	16.f/LL	16.f/LL	16.f/LL	.
.	.	32cc/Jk	32cc/Jk	32cc/Jk	.
8F/	8c/	8f/	8f/	8f/	.
8F/J	8A/J	8f/J	8f/J	8f/J	.
=118	=118	=118	=118	=118	=118
8FF/L	8A/L	16.f/LL	16.f/LL	16.f/LL	.
.	.	32a/Jk	32cc/Jk	32cc/Jk	.
8BB-/	8d/	8g/	8b-/	8b-/	.
8BBn/J	8d/J	8f/J	8a/J	8a/J	7 5
=119	=119	=119	=119	=119	=119
16C/LL	16e/LL	8c/L	8g/L	8g/L	.
16BB-/	16d/	.	.	.	.
16AA/	16c/	8c/	8g/	8g/	.
16GG/	16B-/	.	.	.	.
16FF/	16A/	8c/J	8g/J	8g/J	.
16EE/JJ	16G/JJ	.	.	.	.
=120	=120	=120	=120	=120	=120
8FF/L	8A/L	16.f/LL	16.f/LL	16.f/LL	.
.	.	32cc/Jk	32cc/Jk	32cc/Jk	.
8F/	8c/	8f/	8f/	8f/	.
8F/J	8A/J	8f/J	8f/J	8f/J	.
=121	=121	=121	=121	=121	=121
8FF/L	8A/L	16.f/LL	16.f/LL	16.f/LL	.
.	.	32cc/Jk	32cc/Jk	32cc/Jk	.
8F/	8c/	8f/	8f/	8f/	.
8F/J	8A/J	8f/J	8f/J	8f/J	.
=122	=122	=122	=122	=122	=122
8FF/L	8A/L	16.f/LL	16.f/LL	16.f/LL	.
.	.	32a/Jk	32cc/Jk	32cc/Jk	.
8BB-/	8d/	8g/	8b-/	8b-/	.
8BBn/J	8d/J	8f/J	8a/J	8a/J	7 5
=123	=123	=123	=123	=123	=123
*	*	*	*	*^	*
4C/	4e\	4c/	4g/	8c\	16g/LL	.
.	.	.	.	.	(32d/L	.
.	.	.	.	.	32e/JJJ)	.
*	*	*	*	*v	*v	*
.	.	.	.	(32f/LLL	.
.	.	.	.	32g/)	.
.	.	.	.	(32a/	.
.	.	.	.	32b-/JJJ)	.
8r	8r	8r	8r	(32cc/LLL	.
.	.	.	.	32b-/)	.
.	.	.	.	(32a/	.
.	.	.	.	32g/JJJ)	.
=124	=124	=124	=124	=124	=124
4F\	4.r	4.r	4.r	(32a/LLL	.
.	.	.	.	32f/)	.
.	.	.	.	(32g/	.
.	.	.	.	32a/JJJ)	.
.	.	.	.	(32b-\LLL	.
.	.	.	.	32cc\)	.
.	.	.	.	(32dd\	.
.	.	.	.	32ee-\JJJ)	.
8r	.	.	.	(32ff\LLL	.
.	.	.	.	32ee-\)	.
.	.	.	.	(32dd\	.
.	.	.	.	32cc\JJJ)	.
=125	=125	=125	=125	=125	=125
4BB-/	4.r	4.r	4.r	(32dd\LLL	.
.	.	.	.	32b-\)	.
.	.	.	.	(32cc\	.
.	.	.	.	32dd\JJJ)	.
.	.	.	.	(32ee-\LLL	.
.	.	.	.	32ff\)	.
.	.	.	.	(32gg\	.
.	.	.	.	32aa\JJJ)	.
8r	.	.	.	(32bb-\LLL	.
.	.	.	.	32aa\)	.
.	.	.	.	(32gg\	.
.	.	.	.	32ff\JJJ)	.
*>S126	*>S126	*>S126	*>S126	*>S126	*>S126
!! Selfridge-Field edition.
=126	=126	=126	=126	=126	=126
4C/	4.r	4.r	4.r	(32een\LLL	.
.	.	.	.	32cc\)	.
.	.	.	.	(32dd\	.
.	.	.	.	32ee\JJJ)	.
.	.	.	.	(32ff\LLL	.
.	.	.	.	32gg\)	.
.	.	.	.	(32aa\	.
.	.	.	.	32bb-\JJJ)	.
8r	.	.	.	(32ccc\LLL	.
.	.	.	.	32bb-\)	.
.	.	.	.	(32aa\	.
.	.	.	.	32gg\JJJ)	.
*>A126	*>A126	*>A126	*>A126	*>A126	*>A126
!! Amsterdam print.
=126	=126	=126	=126	=126	=126
4C/	4.r	4.r	4.r	(32ee-\LLL	.
.	.	.	.	32cc\)	.
.	.	.	.	(32dd\	.
.	.	.	.	32ee-\JJJ)	.
.	.	.	.	(32ff\LLL	.
.	.	.	.	32gg\)	.
.	.	.	.	(32aa\	.
.	.	.	.	32bb-\JJJ)	.
8r	.	.	.	(32ccc\LLL	.
.	.	.	.	32bb-\)	.
.	.	.	.	(32aa\	.
.	.	.	.	32gg\JJJ)	.
*>etc7	*>etc7	*>etc7	*>etc7	*>etc7	*>etc7
=127	=127	=127	=127	=127	=127
32F\LLL	32f\LLL	32f/LLL	32f/LLL	4aa\	.
32C\	32c\	32c/	32c/	.	.
32F\	32f\	32f/	32f/	.	.
32C\JJJ	32c\JJJ	32c/JJJ	32c/JJJ	.	.
32F\LLL	32f\LLL	32f/LLL	32f/LLL	.	.
32C\	32c\	32c/	32c/	.	.
32F\	32f\	32f/	32f/	.	.
32C\JJJ	32c\JJJ	32c/JJJ	32c/JJJ	.	.
32F\LLL	32f\LLL	32f/LLL	32f/LLL	8r	.
32C\	32c\	32c/	32c/	.	.
32F\	32f\	32f/	32f/	.	.
32C\JJJ	32c\JJJ	32c/JJJ	32c/JJJ	.	.
=128	=128	=128	=128	=128	=128
32F\LLL	32f\LLL	32f/LLL	32f/LLL	4.r	.
32C\	32c\	32c/	32c/	.	.
32F\	32f\	32f/	32f/	.	.
32C\JJJ	32c\JJJ	32c/JJJ	32c/JJJ	.	.
32F\LLL	32f\LLL	32f/LLL	32f/LLL	.	.
32C\	32c\	32c/	32c/	.	.
32F\	32f\	32f/	32f/	.	.
32C\JJJ	32c\JJJ	32c/JJJ	32c/JJJ	.	.
32F\LLL	32f\LLL	32f/LLL	32f/LLL	.	.
32C\	32c\	32c/	32c/	.	.
32F\	32f\	32f/	32f/	.	.
32C\JJJ	32c\JJJ	32c/JJJ	32c/JJJ	.	.
=129	=129	=129	=129	=129	=129
4F\	4f\	4f/	4f/	32r	.
.	.	.	.	(32ff\LLL	.
.	.	.	.	32aa\	.
.	.	.	.	32gg\JJJ	.
.	.	.	.	32ff\LLL	.
.	.	.	.	32ee\	.
.	.	.	.	32dd\	.
.	.	.	.	32cc\JJJ	.
8r	8r	8r	8r	32b-/LLL	.
.	.	.	.	32a/	.
.	.	.	.	32g/	.
.	.	.	.	32f/JJJ)	.
=130	=130	=130	=130	=130	=130
32E\LLL	32e\LLL	32e/LLL	32e/LLL	[4.c/	.
32C\	32c\	32c/	32c/	.	.
32E\	32e\	32e/	32e/	.	.
32C\JJJ	32c\JJJ	32c/JJJ	32c/JJJ	.	.
32E\LLL	32e\LLL	32e/LLL	32e/LLL	.	.
32C\	32c\	32c/	32c/	.	.
32E\	32e\	32e/	32e/	.	.
32C\JJJ	32c\JJJ	32c/JJJ	32c/JJJ	.	.
32E\LLL	32e\LLL	32e/LLL	32e/LLL	.	.
32C\	32c\	32c/	32c/	.	.
32E\	32e\	32e/	32e/	.	.
32C\JJJ	32c\JJJ	32c/JJJ	32c/JJJ	.	.
=131	=131	=131	=131	=131	=131
4E\	4e\	4e/	4e/	32c/LLL]	.
.	.	.	.	(32gg\	.
.	.	.	.	32bb-\	.
.	.	.	.	32aa\JJJ	.
.	.	.	.	32gg\LLL	.
.	.	.	.	32ff\	.
.	.	.	.	32ee\	.
.	.	.	.	32dd\JJJ	.
8r	8r	8r	8r	32cc\LLL	.
.	.	.	.	32b-\	.
.	.	.	.	32a\	.
.	.	.	.	32g\JJJ)	.
=132	=132	=132	=132	=132	=132
32F\LLL	32f\LLL	32f/LLL	32f/LLL	[4.f/	.
32AA\	32A\	32A/	32A/	.	.
32F\	32f\	32f/	32f/	.	.
32AA\JJJ	32A\JJJ	32A/JJJ	32A/JJJ	.	.
32F\LLL	32f\LLL	32f/LLL	32f/LLL	.	.
32AA\	32A\	32A/	32A/	.	.
32F\	32f\	32f/	32f/	.	.
32AA\JJJ	32A\JJJ	32A/JJJ	32A/JJJ	.	.
32F\LLL	32f\LLL	32f/LLL	32f/LLL	.	.
32AA\	32A\	32A/	32A/	.	.
32F\	32f\	32f/	32f/	.	.
32AA\JJJ	32A\JJJ	32A/JJJ	32A/JJJ	.	.
=133	=133	=133	=133	=133	=133
4F\	4f\	4f/	4f/	32f/LLL]	.
.	.	.	.	(32aa\	.
.	.	.	.	32ccc\	.
.	.	.	.	32bb-\JJJ	.
.	.	.	.	32aa\LLL	.
.	.	.	.	32gg\	.
.	.	.	.	32ff\	.
.	.	.	.	32ee\JJJ	.
8r	8r	8r	8r	32dd\LLL	.
.	.	.	.	32cc\	.
.	.	.	.	32b-\	.
.	.	.	.	32a\JJJ)	.
=134	=134	=134	=134	=134	=134
32E\LLL	32e\LLL	32e/LLL	32e/LLL	[4.g/	.
32C\	32c\	32c/	32c/	.	.
32E\	32e\	32e/	32e/	.	.
32C\JJJ	32c\JJJ	32c/JJJ	32c/JJJ	.	.
32E\LLL	32e\LLL	32e/LLL	32e/LLL	.	.
32C\	32c\	32c/	32c/	.	.
32E\	32e\	32e/	32e/	.	.
32C\JJJ	32c\JJJ	32c/JJJ	32c/JJJ	.	.
32E\LLL	32e\LLL	32e/LLL	32e/LLL	.	.
32C\	32c\	32c/	32c/	.	.
32E\	32e\	32e/	32e/	.	.
32C\JJJ	32c\JJJ	32c/JJJ	32c/JJJ	.	.
=135	=135	=135	=135	=135	=135
4E\	4e\	4e/	4e/	32g/LLL]	.
.	.	.	.	(32bb-\	.
.	.	.	.	32ddd\	.
.	.	.	.	32ccc\JJJ	.
.	.	.	.	32bb-\LLL	.
.	.	.	.	32aa\	.
.	.	.	.	32gg\	.
.	.	.	.	32ff\JJJ	.
8r	8r	8r	8r	32ee\LLL	.
.	.	.	.	32dd\	.
.	.	.	.	32cc\	.
.	.	.	.	32b-\JJJ)	.
=136	=136	=136	=136	=136	=136
(8F\L	4.r	4.r	4.r	4.a-/	b
8E-\	.	.	.	.	.
8D-\J)	.	.	.	.	.
=137	=137	=137	=137	=137	=137
! Tasto solo	!	!	!	!	!
[4.C/	4.r	4.r	4.r	(8c/L	.
.	.	.	.	8en/	.
.	.	.	.	8f/J)	.
=138	=138	=138	=138	=138	=138
4.C_/	4.r	4.r	4.r	(8g-/L	.
.	.	.	.	8an/	.
.	.	.	.	8b-/J)	.
=139	=139	=139	=139	=139	=139
4.C/]	4.r	4.r	4.r	(8cc\L	.
.	.	.	.	8dd-\	.
.	.	.	.	8een\J)	.
=140	=140	=140	=140	=140	=140
4FF/	4.r	4.r	4.r	[8ff\	.
.	.	.	.	32ff\LLL]	.
.	.	.	.	32aa\	.
.	.	.	.	32ff\	.
.	.	.	.	32cc\JJJ	.
8r	.	.	.	32a/LLL	.
.	.	.	.	32cc/	.
.	.	.	.	32a/	.
.	.	.	.	32f/JJJ	.
=141	=141	=141	=141	=141	=141
8r	4.r	4.r	4.r	16c/LL	.
.	.	.	.	16f/JJ	.
8c\L	.	.	.	4gT/	.
8C\J	.	.	.	.	.
*>S142	*>S142	*>S142	*>S142	*>S142	*>S142
!! Selfridge-Field edition.
=142	=142	=142	=142	=142	=142
8F\L	8cc\L	8ff\L	8aa\L	8f\L	.
16F\L	16cc\L	16ff\L	16aa\L	16aa\L	.
16F\	16cc\	16ff\	16aa\	16aa\	.
16F\	16cc\	16ff\	16aa\	16aa\	.
16C\JJ	16g\JJ	16gg\JJ	16bb-\JJ	16bb-\JJ	7
*>A142	*>A142	*>A142	*>A142	*>A142	*>A142
!! Amsterdam print.
=142	=142	=142	=142	=142	=142
8F\L	8cc\L	8ff\L	8ff\L	8f\L	.
16F\L	16cc\L	16ff\L	16ff\L	16aa\L	.
16F\	16cc\	16ff\	16ff\	16aa\	.
16F\	16cc\	16ff\	16ff\	16aa\	.
16C\JJ	16g\JJ	16gg\JJ	16bb-\JJ	16bb-\JJ	7
*>etc8	*>etc8	*>etc8	*>etc8	*>etc8	*>etc8
=143	=143	=143	=143	=143	=143
8F/L	8c\L	8aa\L	8ccc\L	8ccc\L	.
16FF/L	8c\	8ff\	8aa\	8aa\	.
16FF/	.	.	.	.	.
16FF/	8c\J	8ff\J	8aa\J	8aa\J	.
16FF/JJ	.	.	.	.	.
=144	=144	=144	=144	=144	=144
8F\L	8c/L	8f/L	8a/L	8a/L	.
16F\L	16c/L	16f/L	16a/L	16a/L	.
16F\	16c/	16f/	16a/	16a/	.
16F\	16c/	16f/	16a/	16a/	.
16C\JJ	16E/JJ	16g/JJ	16b-/JJ	16b-/JJ	7
=145	=145	=145	=145	=145	=145
8F/L	8C/L	8a/L	8cc/L	8cc/L	.
16FF/L	8C/	8f/	8a/	8a/	.
16FF/	.	.	.	.	.
16FF/	8C/J	8f/J	8a/J	8a/J	.
16FF/JJ	.	.	.	.	.
=146	=146	=146	=146	=146	=146
8FF/L	8A/L	16.f/LL	16.f/LL	16.f/LL	.
.	.	32cc/Jk	32cc/Jk	32cc/Jk	.
8F/	8c/	8f/	8f/	8f/	.
8F/J	8A/J	8f/J	8f/J	8f/J	.
=147	=147	=147	=147	=147	=147
8FF/L	8A/L	16.f/LL	16.f/LL	16.f/LL	.
.	.	32cc/Jk	32cc/Jk	32cc/Jk	.
8F/	8c/	8f/	8f/	8f/	.
8F/J	8A/J	8f/J	8f/J	8f/J	.
=148	=148	=148	=148	=148	=148
8FF/L	8A/L	16.f/LL	16.f/LL	16.f/LL	.
.	.	32a/Jk	32cc/Jk	32cc/Jk	.
8BB-/	8d/	8g/	8b-/	8b-/	.
8BBn/J	8d/J	8f/J	8a/J	8a/J	7 5
=149	=149	=149	=149	=149	=149
16C/LL	16e/LL	8c/L	8g/L	8g/L	.
16BB-/	16d/	.	.	.	.
16AA/	16c/	8c/	8g/	8g/	.
16GG/	16B-/	.	.	.	.
16FF/	16A/	8c/J	8g/J	8g/J	.
16EE/JJ	16G/JJ	.	.	.	.
=150	=150	=150	=150	=150	=150
8FF/L	8A/L	16.f/LL	16.f/LL	16.f/LL	.
.	.	32cc/Jk	32cc/Jk	32cc/Jk	.
8F/	8c/	8f/	8f/	8f/	.
8F/J	8A/J	8f/J	8f/J	8f/J	.
=151	=151	=151	=151	=151	=151
8FF/L	8A/L	16.f/LL	16.f/LL	16.f/LL	.
.	.	32cc/Jk	32cc/Jk	32cc/Jk	.
8F/	8c/	8f/	8f/	8f/	.
8F/J	8A/J	8f/J	8f/J	8f/J	.
=152	=152	=152	=152	=152	=152
16.FF/LL	8A/L	16.f/LL	16.f/LL	16.f/LL	.
32F/Jk	.	32f/Jk	32a/Jk	32a/Jk	.
8BB-/	8d/	8g/	8b-/	8b-/	6
8C/J	8c/J	8e/J	8g/J	8g/J	.
=153	=153	=153	=153	=153	=153
4.FF/	4.A/	4.f/	4.f/	4.f/	.
=154	=154	=154	=154	=154	=154
8FF/L	8A/L	16.f/LL	16.f/LL	16.f/LL	.
.	.	32cc/Jk	32cc/Jk	32cc/Jk	.
8F/	8c/	8f/	8f/	8f/	.
8F/J	8A/J	8f/J	8f/J	8f/J	.
=155	=155	=155	=155	=155	=155
8FF/L	8A/L	16.f/LL	16.f/LL	16.f/LL	.
.	.	32cc/Jk	32cc/Jk	32cc/Jk	.
8F/	8c/	8f/	8f/	8f/	.
8F/J	8A/J	8f/J	8f/J	8f/J	.
=156	=156	=156	=156	=156	=156
16.FF/LL	8A/L	16.f/LL	16.f/LL	16.f/LL	.
32F/Jk	.	32f/Jk	32a/Jk	32a/Jk	.
8BB-/	8d/	8g/	8b-/	8b-/	6
8C/J	8c/J	8e/J	8g/J	8g/J	.
=157	=157	=157	=157	=157	=157
4.FF;/	4.A;/	4.f;/	4.f;/	4.f;/	.
==|!	==|!	==|!	==|!	==|!	==|!
*-	*-	*-	*-	*-	*-
!!!CDT: 1678/3/4/-1741/7/28
!!!OCY: Italia
!!!ODE: Count Wenzeslaus von Morzin of Bohemia; Count Wenceslas of Morzin
!!!ODT: 1725///
!!!OPC: Venezia; Venice
!!!AGN: concerto
!!!AST: baroque
!!!AMT: simple triple
!!!PPR: Michel-Charles Le Ce`ne
!!!PC#: Le Cene No. 520
!!!PDT: 1725///
!!!PPP: Amsterdam
!!!SCT: RV 293
!!!SMA1: The cooperation of the following libraries is gratefully acknowledged:
!!!SMA2: Saechsische Landesbibliothek, Dresden; Biblioteca Nazionale
!!!SMA3: Universitaria, Turin; Henry Watson Music Library, Manchester.
!!!YOR: New York: Dover Publications, Inc. 1995
!!!AIN: cello cemba viola violn
!!!EEV: 1.0
!!!RDT: 1994/4/6/
!!!YER: 1996/10/31/
!!!YEP: Center for Computer Assisted Research in the Humanities
!!!YEN: United States of America
!!!EFL: 3/3
!!!ENC: Edmund Correia, Jr.
!!!EED: Eleanor Selfridge-Field
